markets/DEBT.svg

<svg width="42" height="42" viewBox="0 0 42 42" fill="none" xmlns="http://www.w3.org/2000/svg">
<path fill-rule="evenodd" clip-rule="evenodd" d="M21 0C32.5962 0 42 9.4038 42 21C42 32.5962 32.5962 42 21 42C9.4038 42 0 32.5962 0 21C0 9.4038 9.4038 0 21 0Z" fill="#0E052F"/>
<path d="M12.5371 19.3371C12.5371 18.3657 11.7143 17.6 10.7886 17.6H5.2V25.6H10.7886C11.76 25.6 12.5371 24.7886 12.5371 23.8629V19.3371ZM10.7886 23.6343C10.7886 23.9086 10.5714 24.1371 10.2971 24.1371H6.93714V19.0629H10.2971C10.5714 19.0629 10.7886 19.2914 10.7886 19.5657V23.6343Z" fill="white"/>
<path d="M20.6354 24.1371H15.7097V22.2629H19.7554V20.8H15.7097V19.0629H20.6354V17.6H13.9612V25.6H20.6354V24.1371Z" fill="white"/>
<path d="M27.6524 17.6H22.0638V25.6H27.6524C28.6238 25.6 29.401 24.7886 29.401 23.8629V23.0286C29.401 22.4343 29.0924 21.92 28.6353 21.6C29.1038 21.28 29.401 20.7543 29.401 20.1714V19.3371C29.401 18.3657 28.5781 17.6 27.6524 17.6ZM27.6524 20.3657C27.6524 20.64 27.4353 20.8686 27.161 20.8686H23.801V19.0629H27.161C27.6753 19.0629 27.6524 19.5771 27.6524 19.9657V20.3657ZM27.6524 23.6343C27.6524 23.9086 27.4353 24.1257 27.161 24.1257H23.801V22.3314H27.161C27.4353 22.3314 27.6524 22.56 27.6524 22.8229V23.6343Z" fill="white"/>
<path d="M37.6821 17.6H30.3107V19.0629H33.1336V25.6H34.8707V19.0629H37.6821V17.6Z" fill="white"/>
</svg>

<svg xmlns="http://www.w3.org/2000/svg" width="42" height="42" fill="none"><path fill="#0E052F" fill-rule="evenodd" d="M21 0c11.596 0 21 9.404 21 21s-9.404 21-21 21S0 32.596 0 21 9.404 0 21 0Z" clip-rule="evenodd"/><path fill="#fff" d="M12.537 19.337c0-.971-.823-1.737-1.748-1.737H5.2v8h5.589c.971 0 1.748-.811 1.748-1.737v-4.526Zm-1.748 4.297a.498.498 0 0 1-.492.503h-3.36v-5.074h3.36c.274 0 .492.228.492.503v4.068ZM20.635 24.137H15.71v-1.874h4.045V20.8H15.71v-1.737h4.925V17.6h-6.674v8h6.674v-1.463ZM27.652 17.6h-5.588v8h5.588c.972 0 1.749-.811 1.749-1.737v-.834c0-.595-.309-1.109-.766-1.429.469-.32.766-.846.766-1.429v-.834c0-.971-.823-1.737-1.749-1.737Zm0 2.766a.498.498 0 0 1-.491.503h-3.36v-1.806h3.36c.514 0 .491.514.491.903v.4Zm0 3.268a.488.488 0 0 1-.491.492h-3.36V22.33h3.36c.274 0 .491.229.491.492v.811ZM37.682 17.6h-7.371v1.463h2.823V25.6h1.737v-6.537h2.811V17.6Z"/></svg>
